common/icons/svgs/cc_nc.svg

<svg xmlns="http://www.w3.org/2000/svg" width="24" height="24" viewBox="0 0 24 24">
  <g fill="none" fill-rule="evenodd" transform="translate(-264 -66)">
    <rect width="504" height="450" fill="#FFF"/>
    <g transform="translate(264 66)">
      <rect width="24" height="24"/>
      <path fill="#000" fill-rule="nonzero" d="M19.5707804,4.15294799 C17.5353233,2.07473534 14.7289257,0.934070485 11.8207804,1.00294799 C8.95548678,0.95939011 6.19895413,2.09890164 4.20078038,4.15294799 C2.12938015,6.18041341 0.97382832,8.96457111 1.00078038,11.862948 C0.96556239,14.7453762 2.12371662,17.5140886 4.20078038,19.512948 C6.1880118,21.5924249 8.94449944,22.7608573 11.8207804,22.742948 C14.7472357,22.7680495 17.5571988,21.5978335 19.6007804,19.502948 C21.6689931,17.5076644 22.8045915,14.7357884 22.7307804,11.862948 C22.7895111,8.9664391 21.6454473,6.1750682 19.5707804,4.15294799 L19.5707804,4.15294799 Z M18.2107804,18.082948 C16.5588122,19.8059484 14.2676326,20.7687505 11.8807804,20.742948 C9.51418737,20.7658066 7.24134996,19.8190922 5.59078038,18.122948 C3.8866001,16.489456 2.93457647,14.2234225 2.96078038,11.862948 C2.95189154,10.8651713 3.1177275,9.87353991 3.45078038,8.93294799 L9.00078038,11.412948 L10.7307804,12.172948 L12.0107804,12.752948 L13.0107804,13.202948 C13.2029296,13.3672923 13.3096883,13.6102604 13.3007804,13.862948 C13.3277073,14.1916585 13.1746706,14.5092096 12.9007804,14.692948 C12.5998666,14.8742127 12.2515936,14.9612809 11.9007804,14.942948 C10.9910086,14.9410553 10.1183695,14.5819445 9.47078038,13.942948 L8.06078038,15.482948 C8.96496166,16.3049817 10.1388792,16.7674341 11.3607804,16.782948 L11.3607804,18.452948 L12.6207804,18.452948 L12.6207804,16.782948 C13.3483663,16.7429205 14.0462798,16.481203 14.6207804,16.032948 C15.1451463,15.611294 15.5001355,15.0149121 15.6207804,14.352948 L19.7107804,16.172948 C19.3108952,16.8822407 18.805068,17.5263273 18.2107804,18.082948 L18.2107804,18.082948 Z M14.9307804,11.712948 L13.1807804,10.932948 L12.1807804,10.502948 L10.8207804,9.86294799 C10.7594137,9.78596753 10.7243628,9.69133001 10.7207804,9.59294799 C10.7042665,9.3112657 10.8634273,9.0486503 11.1207804,8.93294799 C11.4019439,8.80055008 11.710093,8.73549638 12.0207804,8.74294799 C12.6924777,8.75638206 13.3430308,8.98022828 13.8807804,9.38294799 L15.3007804,7.92294799 C14.5187962,7.31733896 13.5688211,6.9680834 12.5807804,6.92294799 L12.5807804,5.27294799 L11.3607804,5.27294799 L11.3607804,6.94294799 C10.7295506,6.96634323 10.1170399,7.16359242 9.59078038,7.51294799 C9.11088613,7.84212956 8.75802228,8.32555302 8.59078038,8.88294799 L4.41078038,7.02294799 C4.76894589,6.50055067 5.17395258,6.01186491 5.62078038,5.56294799 C7.25063195,3.8486158 9.52575948,2.89792455 11.8907804,2.94294799 C14.257846,2.90250424 16.5342939,3.8522325 18.1707804,5.56294799 C19.8956431,7.20038595 20.8565931,9.48490845 20.8207804,11.862948 C20.8219419,12.6474858 20.7313261,13.4294664 20.5507804,14.192948 L14.9307804,11.712948 Z"/>
    </g>
  </g>
</svg>

<svg xmlns="http://www.w3.org/2000/svg" viewbox="0 0 24 24"><path class="icon__shape" fill-rule="nonzero" d="M19.57 4.153a10.5 10.5 0 0 0-7.75-3.15 10.41 10.41 0 0 0-7.62 3.15 10.65 10.65 0 0 0-3.2 7.71 10.44 10.44 0 0 0 3.2 7.65 10.45 10.45 0 0 0 7.62 3.23 10.74 10.74 0 0 0 7.78-3.24 10.25 10.25 0 0 0 3.13-7.64 10.47 10.47 0 0 0-3.16-7.71zm-1.36 13.93a8.64 8.64 0 0 1-6.33 2.66 8.66 8.66 0 0 1-6.29-2.62 8.54 8.54 0 0 1-2.63-6.26 8.55 8.55 0 0 1 .49-2.93L9 11.413l1.73.76 1.28.58 1 .45a.83.83 0 0 1 .29.66.91.91 0 0 1-.4.83c-.3.181-.648.268-1 .25a3.47 3.47 0 0 1-2.43-1l-1.41 1.54a5 5 0 0 0 3.3 1.3v1.67h1.26v-1.67a3.57 3.57 0 0 0 2-.75 2.8 2.8 0 0 0 1-1.68l4.09 1.82a8 8 0 0 1-1.5 1.91zm-3.28-6.37l-1.75-.78-1-.43-1.36-.64a.46.46 0 0 1-.1-.27.68.68 0 0 1 .4-.66 2 2 0 0 1 .9-.19 3.21 3.21 0 0 1 1.86.64l1.42-1.46a4.8 4.8 0 0 0-2.72-1v-1.65h-1.22v1.67a3.43 3.43 0 0 0-1.77.57 2.55 2.55 0 0 0-1 1.37l-4.18-1.86a10.43 10.43 0 0 1 1.21-1.46 8.43 8.43 0 0 1 6.27-2.62 8.49 8.49 0 0 1 6.28 2.62 8.51 8.51 0 0 1 2.65 6.3 10.06 10.06 0 0 1-.27 2.33l-5.62-2.48z"/></svg>
